svg/logo/medium_fill.svg

<?xml version="1.0" encoding="UTF-8"?>
<svg width="24px" height="24px" viewBox="0 0 24 24" version="1.1" xmlns="http://www.w3.org/2000/svg" xmlns:xlink="http://www.w3.org/1999/xlink">
    <title>medium_fill</title>
    <g id="页面-1" stroke="none" stroke-width="1" fill="none" fill-rule="evenodd">
        <g id="Brand" transform="translate(-384.000000, -48.000000)" fill-rule="nonzero">
            <g id="medium_fill" transform="translate(384.000000, 48.000000)">
                 <path d="M24,0 L24,24 L0,24 L0,0 L24,0 Z M12.5934901,23.257841 L12.5819402,23.2595131 L12.5108777,23.2950439 L12.4918791,23.2987469 L12.4918791,23.2987469 L12.4767152,23.2950439 L12.4056548,23.2595131 C12.3958229,23.2563662 12.3870493,23.2590235 12.3821421,23.2649074 L12.3780323,23.275831 L12.360941,23.7031097 L12.3658947,23.7234994 L12.3769048,23.7357139 L12.4804777,23.8096931 L12.4953491,23.8136134 L12.4953491,23.8136134 L12.5071152,23.8096931 L12.6106902,23.7357139 L12.6232938,23.7196733 L12.6232938,23.7196733 L12.6266527,23.7031097 L12.609561,23.275831 C12.6075724,23.2657013 12.6010112,23.2592993 12.5934901,23.257841 L12.5934901,23.257841 Z M12.8583906,23.1452862 L12.8445485,23.1473072 L12.6598443,23.2396597 L12.6498822,23.2499052 L12.6498822,23.2499052 L12.6471943,23.2611114 L12.6650943,23.6906389 L12.6699349,23.7034178 L12.6699349,23.7034178 L12.678386,23.7104931 L12.8793402,23.8032389 C12.8914285,23.8068999 12.9022333,23.8029875 12.9078286,23.7952264 L12.9118235,23.7811639 L12.8776777,23.1665331 C12.8752882,23.1545897 12.8674102,23.1470016 12.8583906,23.1452862 L12.8583906,23.1452862 Z M12.1430473,23.1473072 C12.1332178,23.1423925 12.1221763,23.1452606 12.1156365,23.1525954 L12.1099173,23.1665331 L12.0757714,23.7811639 C12.0751323,23.7926639 12.0828099,23.8018602 12.0926481,23.8045676 L12.108256,23.8032389 L12.3092106,23.7104931 L12.3186497,23.7024347 L12.3186497,23.7024347 L12.3225043,23.6906389 L12.340401,23.2611114 L12.337245,23.2485176 L12.337245,23.2485176 L12.3277531,23.2396597 L12.1430473,23.1473072 Z" id="MingCute" fill-rule="nonzero"></path>
                <path d="M8,6 C11.3137,6 14,8.68629 14,12 C14,15.3137 11.3137,18 8,18 C4.68629,18 2,15.3137 2,12 C2,8.68629 4.68629,6 8,6 Z M17,7 C18.5,7 19.5,9.23858 19.5,12 C19.5,14.7614 18.5,17 17,17 C15.5,17 14.5,14.7614 14.5,12 C14.5,9.23858 15.5,7 17,7 Z M21,7.5 C21.3808966,7.5 21.7120428,8.32691082 21.8808962,9.74595777 L21.9265709,10.1892012 C21.9333344,10.2659575 21.939664,10.3441355 21.9455457,10.4237057 L21.9753479,10.9176001 C21.9793816,11.0026222 21.9829391,11.0889779 21.9860066,11.1766379 L21.998417,11.7180139 C21.9994677,11.8107735 22,11.9047786 22,12 L21.998417,12.2819842 L21.998417,12.2819842 L21.9860066,12.8233572 C21.9829391,12.9110167 21.9793816,12.997372 21.9753479,13.0823937 L21.9455457,13.5762865 C21.939664,13.6558565 21.9333344,13.7340343 21.9265709,13.8107905 L21.8808962,14.2540334 C21.7120428,15.6730797 21.3808966,16.5 21,16.5 C20.6191034,16.5 20.2879572,15.6730797 20.1191038,14.2540334 L20.0734291,13.8107905 C20.0666656,13.7340343 20.060336,13.6558565 20.0544543,13.5762865 L20.0246521,13.0823937 C20.0206184,12.997372 20.0170609,12.9110167 20.0139934,12.8233572 L20.001583,12.2819842 L20.001583,12.2819842 L20.001583,11.7180139 L20.001583,11.7180139 L20.0139934,11.1766379 C20.0170609,11.0889779 20.0206184,11.0026222 20.0246521,10.9176001 L20.0544543,10.4237057 C20.060336,10.3441355 20.0666656,10.2659575 20.0734291,10.1892012 L20.1191038,9.74595777 C20.2879572,8.32691082 20.6191034,7.5 21,7.5 Z" id="形状" fill="#09244B"></path>
            </g>
        </g>
    </g>
</svg>

<svg xmlns="http://www.w3.org/2000/svg" width="24" height="24"><g fill="none" fill-rule="nonzero"><path d="M24 0v24H0V0h24ZM12.593 23.258l-.011.002-.071.035-.02.004-.014-.004-.071-.035c-.01-.004-.019-.001-.024.005l-.004.01-.017.428.005.02.01.013.104.074.015.004.012-.004.104-.074.012-.016.004-.017-.017-.427c-.002-.01-.009-.017-.017-.018Zm.265-.113-.013.002-.185.093-.01.01-.003.011.018.43.005.012.008.007.201.093c.012.004.023 0 .029-.008l.004-.014-.034-.614c-.003-.012-.01-.02-.02-.022Zm-.715.002a.023.023 0 0 0-.027.006l-.006.014-.034.614c0 .012.007.02.017.024l.015-.002.201-.093.01-.008.004-.011.017-.43-.003-.012-.01-.01-.184-.092Z"/><path fill="#09244B" d="M8 6a6 6 0 1 1 0 12A6 6 0 0 1 8 6Zm9 1c1.5 0 2.5 2.239 2.5 5s-1 5-2.5 5-2.5-2.239-2.5-5 1-5 2.5-5Zm4 .5c.38 0 .712.827.88 2.246l.047.443.019.235.03.494.01.259.012.541L22 12l-.002.282-.012.541-.01.26-.03.493-.02.235-.045.443c-.169 1.42-.5 2.246-.881 2.246-.38 0-.712-.827-.88-2.246l-.047-.443a16.683 16.683 0 0 1-.019-.235l-.03-.494a20.863 20.863 0 0 1-.01-.259l-.012-.541v-.564l.012-.541.01-.26.03-.493.02-.235.045-.443c.169-1.42.5-2.246.881-2.246Z"/></g></svg>
